X: 081312
T: Humors of Kesh
T: Pl\'ear\'aca na C\'eise
T: Tempest
S: "Ceol Rince na hEireann" 1/02
Z: B.Black
L: 1/8
M: 6/8
R: jig
K: G
d/c/|BAG Bcd|e2d efg|dcB gdB|AGA ABc|
BAG Bcd|e2d efg|dcB gdB|cAF G2 :|
B/d/|gfg bag|fed ^cde|dcB gdB|AGA ABd|
gfg bag|fed ^cde|dcB gdB|cAF GBd|
gfg bag|fed gfg|dcB gdB|A2G ABd|
gfg bag|fed gfg|dcB gdB|cAF G2 ||
